X:1
T:Title
%%score { ( 1 3 ) | ( 2 4 ) }
L:1/8
M:4/4
K:C
V:1 treble nm="Grand Piano"
V:3 treble 
V:2 bass 
V:4 bass 
V:1
 z4 z2[Q:1/4=108] [CE]>[DF] | [EG]2 [Ec]2 c>B A>B | [Ec]4 [EG]2 [Ec]2 | %3
 [Fd]>c [DB]>[FA] [CEG]2 [G,DF]2 |[M:3/4] [G,CE]4 [B,D]2 |[M:1/4] [B,DG]2 | %6
[M:4/4] [CG]2 [Gc]2 c>B A>B | [Ec]4 [CEG]2 [EGc]2 | [DB]2 z2 z4 |[M:3/4] [B,DG]4 z2 | %10
[M:1/4] G/ z/ z |[M:4/4] [Ec]2 [FB]2 [Gc]2 d2 | B4 z4 | [DGB]2 [DG]2 [CEA]2 [A,D^F]2 | %14
[M:3/4] [B,DG]4 z2 |[M:1/4] G/ z/ z |[M:4/4] [Ec]2 d2 e2 [Gc]2 | A2 B2 c2 c2 | c3 G GA B2 | %19
[M:3/4] [Ec]6 |] %20
V:2
 z4 z2 [C,G,]2 | [C,C]2 [C,G,]2 [D,G,]2 [G,,G,]2 | [C,G,]4 [C,C]2 [C,A,]2 | G,2 G,4 z2 | %4
[M:3/4] C,2 E,2 G,2 |[M:1/4] F,2 |[M:4/4] E,2 [E,G,]2 [D,G,]2 [G,,G,]2 | [C,G,]4 C,2 C,2 | %8
 z z/ E/ z z/ C/ D,2 D,2 |[M:3/4] G,2 F,2 E,2 |[M:1/4] (3z[K:treble] AB | %11
[M:4/4][K:bass] [C,G,]2 [D,G,]2 [E,G,]2 [^F,A,D]2 | [G,G]4 [E,G,]2 D,2 | F,2 B,,2 C,2 D,2 | %14
[M:3/4] G,2 F,2 E,2 |[M:1/4] (3z[K:treble] AB | %16
[M:4/4][K:bass] [C,G,]2[K:treble] [G,B,G]2 [CG]2[K:bass] [E,C]2 | %17
 [F,C]2 [D,D]2[K:treble] [A,CE]2 [^G,_E^F]2 | [G,EG]3 [G,E] [G,DF]2 [G,F]2 | %19
[M:3/4][K:bass] [C,G,]6 |] %20
V:3
 x8 | z4 F2 F2 | x8 | x8 |[M:3/4] x6 |[M:1/4] x2 |[M:4/4] z4 F2 F2 | x8 | %8
 G->[Gc] [DGB]>[DA] [B,DG]2 [A,D^F]2 |[M:3/4] x6 |[M:1/4] [G,F]2 |[M:4/4] x8 | %12
 z2 F,2 [Gc]2 [D^FA]2 | x8 |[M:3/4] x6 |[M:1/4] [G,F]2 |[M:4/4] x8 | F4 z4 | x8 |[M:3/4] x6 |] %20
V:4
 x8 | x8 | x8 | z z/ E/ z z/ B,/ G,,2 A,,B,, |[M:3/4] x6 |[M:1/4] x2 |[M:4/4] x8 | x8 | %8
 D,2 D,2 z4 |[M:3/4] x6 |[M:1/4] D,2[K:treble] |[M:4/4][K:bass] x8 | x8 | x8 |[M:3/4] x6 | %15
[M:1/4] D,2[K:treble] |[M:4/4][K:bass] x2[K:treble] x4[K:bass] x2 | x4[K:treble] x4 | x8 | %19
[M:3/4][K:bass] x6 |] %20

